!!!COA:	Josquin des Prez
!!!CDT:	~1450-1521/08/27
!!!OTL@@LAT: Qui velatus facie fuisti
!!!OTL2@@LAT: Hora qui ductus tercia
!!!OTL3@@LAT: Tertia pars: In flagellis potum fellis
!!!OTL4@@LAT: In amara crucis ara
!!!OTL5@@LAT: Qui jacuisti mortuus
!!!OTL6@@LAT: Christum ducem, qui per crucem
!!!AGN:	Motet; Motet cycle
!!!SCT:	NJE 22.3
!!!SCA:	New Josquin Edition 22.3
!!!voices:	4
**kern	**kern	**kern	**kern
*staff4	*staff3	*staff2	*staff1
*Ivox	*Ivox	*Ivox	*Ivox
*I"Bassus	*I"Tenor	*I"Altus	*I"Superius
*I'B	*I'T	*I'A	*I'S
*clefF4	*clefGv2	*clefGv2	*clefG2
*k[]	*k[]	*k[]	*k[]
*M2/1	*M2/1	*M2/1	*M2/1
*met(C|)	*met(C|)	*met(C|)	*met(C|)
!!section: Prima pars: Hora qui ductus tercia
!!!OMD: Prima pars: Qui valatus facie fuisti
=1-	=1-	=1-	=1-
0r	0r	0A	0r
=2	=2	=2	=2
0r	0r	1A	0r
.	.	[1c	.
=3	=3	=3	=3
0AA	0r	1c]	0r
.	.	1c	.
=4	=4	=4	=4
1AA	0r	[0e	0r
[1C	.	.	.
=5	=5	=5	=5
1C]	0r	1e]	0r
1C	.	1e	.
=6	=6	=6	=6
1D	[0A	1f	0r
1C	.	1e	.
=7	=7	=7	=7
1D	0A]	1d	0r
1E	.	1c	.
=8	=8	=8	=8
0F	0A	0d	0r
=9	=9	=9	=9
[0C	0c	[0e	0e
=10	=10	=10	=10
0C_	0c	0e_	1e
.	.	.	[1g
=11	=11	=11	=11
0C]	[0c	0e]	1g]
.	.	.	1g
=12	=12	=12	=12
1F	1c]	1A	1a
1E	1c	[1e	1g
=13	=13	=13	=13
1A	1c	0e]	1a
1G	1B	.	1b
=14	=14	=14	=14
0F	0A	1.c	0cc
.	.	2d\	.
=15	=15	=15	=15
0E;	0B;	0e;	0g;
=16	=16	=16	=16
0r	0r	0A	0r
=17	=17	=17	=17
0r	0r	1A	0r
.	.	[1c	.
=18	=18	=18	=18
0AA	0r	1c]	0r
.	.	1c	.
=19	=19	=19	=19
1AA	0r	[0e	0r
[1C	.	.	.
=20	=20	=20	=20
1C]	0r	1e]	0r
1C	.	1e	.
=21	=21	=21	=21
1D	[0A	1f	0r
1C	.	1e	.
=22	=22	=22	=22
1D	0A]	1d	0r
1E	.	1c	.
=23	=23	=23	=23
0F	0A	0d	0r
=24	=24	=24	=24
[0C	[0c	[0e	0e
=25	=25	=25	=25
0C_	1c]	0e_	1e
.	1c	.	[1g
=26	=26	=26	=26
0C]	1c	0e]	1g]
.	1c	.	1g
=27	=27	=27	=27
1F	[0c	1A	1a
1E	.	[1e	1g
=28	=28	=28	=28
1A	1c]	0e]	1a
1G	1B	.	1b
=29	=29	=29	=29
0F	0A	1.c	0cc
.	.	2d\	.
=30	=30	=30	=30
0E;	0B;	0e;	0g;
=31	=31	=31	=31
0C	0c	0e	0g
=32	=32	=32	=32
1C	1c	1e	1g
[1D	[1A	[1d	[1f
=33	=33	=33	=33
1D]	1A]	1d]	1f]
1AA	1A	1c	1e
=34	=34	=34	=34
0AA;	0A;	0c;	0e;
=35	=35	=35	=35
0AA	0c	0e	0e
=36	=36	=36	=36
0E	1c	0e	1g
.	1B	.	[1g
=37	=37	=37	=37
1E	0c	1e	1g]
1F	.	1c	1a
=38	=38	=38	=38
1D	1d	1f	1a
[1E	[1B	[1e	[1g#i
=39	=39	=39	=39
1E]	1B]	1e]	1g#]
1AA	1A	1c	1a
=40	=40	=40	=40
0AA;	0A;	0c;	0a;
=41	=41	=41	=41
0AA	0c	0e	0e
=42	=42	=42	=42
0E	1c	1e	1g
.	1B	[1e	[1g
=43	=43	=43	=43
1E	0c	1e]	1g]
1F	.	1c	1a
=44	=44	=44	=44
1D	1d	1f	1a
[1E	[1B	[1e	[1g#i
=45	=45	=45	=45
1E]	1B]	1e]	1g#]
1AA	1A	1c	1a
=46	=46	=46	=46
0AA;	0A;	0c;	0a;
=47	=47	=47	=47
1F	1c	1f	1a
1F	1c	1f	1a
=48	=48	=48	=48
1F	1c	1f	1a
[1F	[1c	[1f	[1a
=49	=49	=49	=49
1F]	1c]	1f]	1a]
1C	1c	1e	1g
=50	=50	=50	=50
0D	0A	0d	0f
=51	=51	=51	=51
1AA	1A	1c	1e
[1AA	[1A	[1c	[1e
=52	=52	=52	=52
1AA]	1A]	1c]	1e]
1r	1r	1r	1r
=53	=53	=53	=53
1D	1A	1d	1f
1D	1A	1d	1f
=54	=54	=54	=54
1D	1A	1d	1f
[1D	[1A	[1d	[1f
=55	=55	=55	=55
1D]	1A]	1d]	1f]
1AA	1A	1c	1e
=56	=56	=56	=56
0BB-	0F	0B-	0d
=57	=57	=57	=57
1FF	1F	1A	1c
[1FF	[1F	[1A	[1c
=58	=58	=58	=58
1FF]	1F]	1A]	1c]
1r	1r	1r	1r
=59	=59	=59	=59
0r	1D	0r	1d
.	1D	.	1d
=60	=60	=60	=60
0r	1D	0r	1d
.	[1F	.	[1d
=61	=61	=61	=61
0r	1F]	0r	1d]
.	1F	.	1c
=62	=62	=62	=62
0r	0G	0r	0B
=63	=63	=63	=63
0r	1A	0r	1A
.	[1A	.	[1A
=64	=64	=64	=64
0r	1A]	0r	1A]
.	1r	.	1r
=65	=65	=65	=65
1C	1G	1c	1e
1C	1G	1c	1e
=66	=66	=66	=66
1C	1G	1c	1e
[1F	[1A	[1c	[1f
=67	=67	=67	=67
1F]	1A]	1c]	1f]
1C	1G	1c	1e
=68	=68	=68	=68
1D	2F/	1A	1d
.	2D/	.	.
1AA	1E	1A	1c
=69	=69	=69	=69
0BB-	0D	2F/	0d
.	.	2D/	.
.	.	1d	.
=70	=70	=70	=70
[0AA	1A	0c	[0el
.	[1c	.	.
=71	=71	=71	=71
1AA]	2c\]	0c	0e_
.	2B\	.	.
[1C	1A	.	.
=72	=72	=72	=72
2C/]	1G	1r	0e_
2BB/	.	.	.
1AA	1A	1c	.
=73	=73	=73	=73
1GG	[0El	1B	0e_
1AA	.	1A	.
=74	=74	=74	=74
[0EEl	0E_	1.c	0e_
.	.	2B\	.
=75	=75	=75	=75
0EE_	0E_	1.G	0e_
.	.	2A/	.
=76	=76	=76	=76
0EE]	0E]	0Bl	0e]
!!LO:LB:i:g=z
=77||	=77||	=77||	=77||
!!section: Secunda pars: Hora qui ductus tercia
!!!OMD: Secunda pars: Hora qui ductus tercia
*M2/1	*M2/1	*M2/1	*M2/1
*met(C|)	*met(C|)	*met(C|)	*met(C|)
0AA	0r	0r	0r
=78	=78	=78	=78
1C	0r	0r	0r
1C	.	.	.
=79	=79	=79	=79
1D	0r	0r	0r
1D	.	.	.
=80	=80	=80	=80
1D	0r	0A	0r
1D	.	.	.
=81	=81	=81	=81
0C	0E	1c	0r
.	.	1c	.
=82	=82	=82	=82
0GG	1G	1d	0r
.	1G	1d	.
=83	=83	=83	=83
0D	1A	1d	0r
.	1A	1d	.
=84	=84	=84	=84
0AA	1A	0c	0e
.	1A	.	.
=85	=85	=85	=85
0E	0G	1B	1g
.	.	[1c	1g
=86	=86	=86	=86
[0F	0r	2c\]	1a
.	.	2A/	.
.	.	1A	1a
=87	=87	=87	=87
0F]	0r	0f	1a
.	.	.	1a
=88	=88	=88	=88
0C	0c	[0e	[0g
=89	=89	=89	=89
1.C	1c	0e]	0g]
.	1c	.	.
2D\	.	.	.
=90	=90	=90	=90
1E	1.c	0r	0r
1F	.	.	.
.	4B\	.	.
.	4A/	.	.
=91	=91	=91	=91
1E	1c	0r	0r
[1D	[1B	.	.
=92	=92	=92	=92
1D]	2B\]	0r	0r
.	2A/	.	.
1C	[1A	.	.
=93	=93	=93	=93
0BB	1A]	0r	0r
.	1G#i	.	.
=94	=94	=94	=94
[0AA	[0A	1r	0cc
.	.	1A	.
=95	=95	=95	=95
0AA]	0A]	1.c	1cc
.	.	.	1cc
.	.	2d\	.
=96	=96	=96	=96
0r	0r	1e	1.cc
.	.	1f	.
.	.	.	4b\
.	.	.	4a/
=97	=97	=97	=97
0r	0r	1e	1cc
.	.	[1d	[1b
=98	=98	=98	=98
0r	0r	1d]	2b\]
.	.	.	2a/
.	.	1c	[1a
=99	=99	=99	=99
0E	0r	0B	1a]
.	.	.	1g#i
=100	=100	=100	=100
0F	0r	1A	[0a
.	.	1c	.
=101	=101	=101	=101
1D	0r	1d	1a]
[1A	.	1e	[1cc
=102	=102	=102	=102
1A]	0r	1f	1cc]
1G	.	2g\	1b
.	.	[2e\	.
=103	=103	=103	=103
0F	1r	2e\]	0a
.	.	4d\	.
.	.	4c\	.
.	1A	1d	.
=104	=104	=104	=104
0E	1B	0e	0g
.	1c	.	.
=105	=105	=105	=105
1r	1.d	0f	0r
1D	.	.	.
.	2c\	.	.
=106	=106	=106	=106
1E	1B	1e	0r
1F	1A	1A	.
=107	=107	=107	=107
1.G	0G	2.B\	1r
.	.	4A/	.
.	.	4B\	1d
.	.	4c\	.
2F\	.	[2d\	.
=108	=108	=108	=108
1E	0r	2d\]	1e
.	.	2c\	.
1D	.	2d\	1f
.	.	2f\	.
=109	=109	=109	=109
0C	1r	0e	1.g
.	1G	.	.
.	.	.	2f/
=110	=110	=110	=110
0r	1A	0r	1e
.	1B	.	1d
=111	=111	=111	=111
1r	1.c	1.e	0c
1C	.	.	.
.	2B\	4d\	.
.	.	4e\	.
=112	=112	=112	=112
1D	1A	4f\	0r
.	.	4e\	.
.	.	4d\	.
.	.	4c\	.
1E	1G	1B	.
=113	=113	=113	=113
1.F	0A	2A/	1r
.	.	2.d\	.
.	.	.	1c
.	.	4c\	.
2E\	.	[2c\	.
=114	=114	=114	=114
1D	1F	2c\]	1d
.	.	2B\	.
1C	1G	1c	1e
=115	=115	=115	=115
2.D\	2F/	2A/	1.f
.	2B-i\	2d\	.
4E\	.	.	.
2F\	2A/	2.c\	.
2C/	[2G/	.	2e/
.	.	4B\	.
=116	=116	=116	=116
2D\	4G/]	2A/	1d
.	4F/	.	.
2BB-i/	4E/	2G/	.
.	4D/	.	.
1AA	1E	1A	1c
=117	=117	=117	=117
1BB-i	0D	1F	[0d
1GG	.	1B-	.
=118	=118	=118	=118
2.D\	0r	2A/	0d]
.	.	2.d\	.
4E\	.	.	.
2F\	.	.	.
.	.	4c\	.
[2G\	.	4B-i\	.
.	.	4A/	.
=119	=119	=119	=119
2G\]	1d	2B-i\	0r
2F\	.	2A/	.
2G\	2d\	1B-i	.
[2D\	2d\	.	.
=120	=120	=120	=120
4D\]	1.d	1A	0r
4E\	.	.	.
2F\	.	.	.
2G\	.	1r	.
[2B-i\	2d\	.	.
=121	=121	=121	=121
4B-\]	1c	0r	0r
4A\	.	.	.
1A	.	.	.
.	1B-i	.	.
2G\	.	.	.
=122	=122	=122	=122
1A	0A	2r	1a
.	.	2.A/	.
1AA	.	.	2a/
.	.	4B\	.
.	.	2c\	2a/
=123	=123	=123	=123
0r	0r	2d\	1.a
.	.	2c\	.
.	.	4d\	.
.	.	4c\	.
.	.	[2f\	2a/
=124	=124	=124	=124
0r	0r	4f\]	1g
.	.	4e\	.
.	.	1e	.
.	.	.	1f
.	.	2d\	.
=125	=125	=125	=125
2r	1c	2.e\	0e
2.AA/	.	.	.
.	.	4c\	.
.	2c\	1c	.
4BB/	.	.	.
4C/	2c\	.	.
4D\	.	.	.
=126	=126	=126	=126
2E\	1.c	0r	0r
2F\	.	.	.
2C/	.	.	.
[2E\	2c\	.	.
=127	=127	=127	=127
4E\]	1B	0r	0r
4D\	.	.	.
1G	.	.	.
.	1A	.	.
2F#i\	.	.	.
=128	=128	=128	=128
1G	0G	2r	1g
.	.	2.G/	.
1GG	.	.	2g/
.	.	4A/	.
.	.	2B\	2g/
=129	=129	=129	=129
0r	0r	2c\	1.g
.	.	2B\	.
.	.	4c\	.
.	.	4B\	.
.	.	[2e\	2g/
=130	=130	=130	=130
0r	0r	4e\]	1f
.	.	4d\	.
.	.	1d	.
.	.	.	1e
.	.	2c#i\	.
=131	=131	=131	=131
0r	0r	1d	0d
.	.	1r	.
=132	=132	=132	=132
*M3/1	*M3/1	*M3/1	*M3/1
*met(O/3)	*met(O/3)	*met(O/3)	*met(O/3)
1D	1d	1f	1d
1D	1d	1f	1d
1D	1d	1f	1d
=133	=133	=133	=133
1.D	0d	0f	0a
2E\	.	.	.
1F	1d	1f	1a
=134	=134	=134	=134
1G	1d	1d	1b
1A	1c	1f	1a
1E	1B	1e	1g#i
=135	=135	=135	=135
0AA	0A	0c	0a
1r	1r	1r	1r
=136	=136	=136	=136
*M2/1	*M2/1	*M2/1	*M2/1
*met(C|)	*met(C|)	*met(C|)	*met(C|)
1C	1G	1c	1e
1C	1G	1c	1e
=137	=137	=137	=137
1C	1G	1c	1e
[1F	[1A	[1c	[1f
=138	=138	=138	=138
1F]	1A]	1c]	1f]
1C	1G	1c	1e
=139	=139	=139	=139
1D	2F/	1A	1d
.	2D/	.	.
1AA	1E	1A	1c
=140	=140	=140	=140
0BB	0D	2F/	0d
.	.	2D/	.
.	.	1d	.
=141	=141	=141	=141
[0AA	1A	[0c	[0el
.	[1c	.	.
=142	=142	=142	=142
1AA]	2c\]	0c]	0e_
.	2B\	.	.
[1C	1A	.	.
=143	=143	=143	=143
2C/]	1G	1r	0e_
2BB/	.	.	.
1AA	1A	1c	.
=144	=144	=144	=144
1GG	[0El	1B	0e_
1AA	.	1A	.
=145	=145	=145	=145
[0EEl	0E_	1.c	0e_
.	.	2B\	.
=146	=146	=146	=146
0EE]	0E]	0Gl	0e]
!!LO:LB:i:g=z
=147||	=147||	=147||	=147||
!!section: Tertia pars: In flagellis potum fellis
!!!OMD: Tertia pars: In flagellis potum fellis
*M2/1	*M2/1	*M2/1	*M2/1
*met(C|)	*met(C|)	*met(C|)	*met(C|)
0A	0A	0e	0a
=148	=148	=148	=148
0A	0c	1e	0a
.	.	[1c	.
=149	=149	=149	=149
[0F	[0c	1c]	[0a
.	.	1A	.
=150	=150	=150	=150
1F]	1c]	[0A	1a]
1D	1d	.	1f
=151	=151	=151	=151
[0D;	1.d	0A]	[0f;
.	2c\	.	.
=152	=152	=152	=152
0D]	0A;	0d;	0f]
=153	=153	=153	=153
0G	0G	0d	0g
=154	=154	=154	=154
0G	0B	1d	0g
.	.	[1B	.
=155	=155	=155	=155
[0E	[0B	1B]	[0g
.	.	1G	.
=156	=156	=156	=156
1E]	1B]	[0G	1g]
1C	1c	.	1e
=157	=157	=157	=157
[0C;	1.c	0G]	[0e;
.	2B\	.	.
=158	=158	=158	=158
0C]	0G;	0c;	0e]
=159	=159	=159	=159
0D	0d	0A	0f
=160	=160	=160	=160
1D	1A	0F	1f
1D	1B	.	1f
=161	=161	=161	=161
[0C	1.c	0G	1e
.	.	.	1e
.	2B\	.	.
=162	=162	=162	=162
1C]	1G	1E	1.g
1C	1A	1E	.
.	.	.	2f/
=163	=163	=163	=163
[0BB-	1.B-	1.G	1d
.	.	.	1d
.	2A/	2F/	.
=164	=164	=164	=164
1BB-]	1F	1D	1.f
1BB-i	1G	1D	.
.	.	.	2e/
=165	=165	=165	=165
0AAl;	0Al;	0El;	0cl;
=166	=166	=166	=166
0r	0r	1c	1e
.	.	1c	1e
=167	=167	=167	=167
0r	0r	1c	1e
.	.	[1B	[1g
=168	=168	=168	=168
0r	0r	1B]	1g]
.	.	1c	1g
=169	=169	=169	=169
0r	0r	1A	1.a
.	.	[1B	.
.	.	.	4g#i/
.	.	.	4f#i/
=170	=170	=170	=170
0r	0r	1B]	1g#i
.	.	[1A	[1a
=171	=171	=171	=171
0r	0r	1A]	1a]
.	.	1r	1r
=172	=172	=172	=172
1F	1A	0c	[0a
1F	1A	.	.
=173	=173	=173	=173
1F	1A	1d	1a]
[1E	[1c	[1e	[1g
=174	=174	=174	=174
1E]	1c]	1e]	1g]
1F	1c	1A	1a
=175	=175	=175	=175
1D	1.d	1B	1f
[1E	.	[1G	[1g
.	4c#i\	.	.
.	4B\	.	.
=176	=176	=176	=176
1E]	1c#i	1G]	2g/]
.	.	.	4f/
.	.	.	4e/
[1D	[1d	[1A	[1f
=177	=177	=177	=177
1D]	1d]	1A]	1f]
1r	1r	1r	1r
=178	=178	=178	=178
1D	1d	1f	1a
1D	1d	1f	1a
=179	=179	=179	=179
1D	1d	1f	1b
[1C	[1e	[1g	[1cc
=180	=180	=180	=180
1C]	1e]	1g]	1cc]
1AA	1c	1f	1cc
=181	=181	=181	=181
0GG	0d	0g	1.b
.	.	.	2b\
=182	=182	=182	=182
2.AA/	1c	1e	2.cc\
4BB/	.	.	4b\
[1C	[1c	[1e	[1g
=183	=183	=183	=183
1C]	1c]	1e]	1g]
1r	1r	1r	1r
=184	=184	=184	=184
0r	0r	1c	1e
.	.	1c	1e
=185	=185	=185	=185
0r	0r	1c	1e
.	.	[1B	[1g
=186	=186	=186	=186
0r	0r	1B]	1g]
.	.	1c	1g
=187	=187	=187	=187
0r	0r	1A	1.a
.	.	[1B	.
.	.	.	4g#i/
.	.	.	4f#i/
=188	=188	=188	=188
0r	0r	1B]	1g#i
.	.	[1A	[1a
=189	=189	=189	=189
0r	0r	1A]	1a]
.	.	1r	1r
=190	=190	=190	=190
1F	1A	0c	[0a
1F	1A	.	.
=191	=191	=191	=191
1F	1A	1d	1a]
[1E	[1c	[1e	[1g
=192	=192	=192	=192
1E]	1c]	1e]	1g]
1F	1c	1A	1a
=193	=193	=193	=193
1D	1.d	1B	1f
[1E	.	[1G	[1g
.	4c#i\	.	.
.	4B\	.	.
=194	=194	=194	=194
1E]	1c#i	1G]	2g/]
.	.	.	4f/
.	.	.	4e/
[1D	[1d	[1A	[1f
=195	=195	=195	=195
1D]	1d]	1A]	1f]
1r	1r	1r	1r
=196	=196	=196	=196
1C	1G	1c	1e
1C	1G	1c	1e
=197	=197	=197	=197
1C	1G	1c	1e
[1F	[1A	[1c	[1f
=198	=198	=198	=198
1F]	1A]	1c]	1f]
1C	1G	1c	1e
=199	=199	=199	=199
1D	2F/	1A	1d
.	2D/	.	.
1AA	1E	1A	1c
=200	=200	=200	=200
0BB	0D	2F/	0d
.	.	2D/	.
.	.	1d	.
=201	=201	=201	=201
[0AA	1A	[0c	[0el
.	[1c	.	.
=202	=202	=202	=202
1AA]	2c\]	0c]	0e_
.	2B\	.	.
[1C	1A	.	.
=203	=203	=203	=203
2C/]	1G	1r	0e_
2BB/	.	.	.
1AA	1A	1c	.
=204	=204	=204	=204
1GG	[0El	1B	0e_
1AA	.	1A	.
=205	=205	=205	=205
[0EEl	0E_	1.c	0e_
.	.	2B\	.
=206	=206	=206	=206
0EE]	0E]	0Gl	0e]
=207	=207	=207	=207
0E	0E	0e	0g
=208	=208	=208	=208
0E;	0G;	0e;	0b;
=209	=209	=209	=209
0AA	0A	0c	0cc
=210	=210	=210	=210
1E	1G	1g	1b
1F	1A	1f	1a
=211	=211	=211	=211
[0C	[0c	[0e	[0g
=212	=212	=212	=212
1C]	1c]	1e]	1g]
1C	1c	1e	1g
=213	=213	=213	=213
0C;	0c;	0e;	0g;
=214	=214	=214	=214
0C	0E	0c	0g
=215	=215	=215	=215
0C	0G	[0c	0e
=216	=216	=216	=216
0F	0A	1c]	0f
.	.	1c	.
=217	=217	=217	=217
1E	1G	1c	1g
1D	1A	1F	1f
=218	=218	=218	=218
[0AA	[0c	[0A	[0e
=219	=219	=219	=219
1AA]	1c]	1A]	1e]
1AA	1c	1A	1e
=220	=220	=220	=220
0AA;	0c;	0A;	0e;
=221	=221	=221	=221
0AA	0e	0c	0cc
=222	=222	=222	=222
0C	0e	1c	0cc
.	.	[1g	.
=223	=223	=223	=223
1GG	1d	1g]	1b
1D	1d	1f	1a
=224	=224	=224	=224
1.AA	[0c	[0e	[0cc
2BB/	.	.	.
=225	=225	=225	=225
1C	1c]	1e]	1cc]
1C	1c	1e	1g
=226	=226	=226	=226
0C;	0c;	0e;	0g;
=227	=227	=227	=227
0C	0e	0g	0cc
=228	=228	=228	=228
1G	1d	1g	1b
1A	1c	1e	1a
=229	=229	=229	=229
0E;	0B;	0e;	0g;
=230	=230	=230	=230
[0E	[0G	[0e	[0g
=231	=231	=231	=231
1E]	1G]	1e]	1g]
1E	1G	1e	1g
=232	=232	=232	=232
[0C	[0G	[0e	1g
.	.	.	1e
=233	=233	=233	=233
1C]	1G]	1e]	[0el
1AA	1A	1c	.
=234	=234	=234	=234
0AAl	0Al	0cl	0e]
!!LO:LB:i:g=z
=235||	=235||	=235||	=235||
!!section: Quarta pars: In amara crucis ara
!!!OMD: Quarta pars: In amara crucis ara
1r	0E	0r	0r
1E	.	.	.
=236	=236	=236	=236
1E	1G	0r	0r
2.F\	1A	.	.
4E\	.	.	.
=237	=237	=237	=237
2D\	1A	0r	0r
2C/	.	.	.
1BB	1G	.	.
=238	=238	=238	=238
0AA	0r	1r	0e
.	.	1e	.
=239	=239	=239	=239
0r	0r	1e	1g
.	.	2.f\	1a
.	.	4e\	.
=240	=240	=240	=240
1r	1r	2d\	1a
.	.	2c\	.
1E	1G	1B	1g
=241	=241	=241	=241
1.F	1A	0A	0r
.	[1c	.	.
2E\	.	.	.
=242	=242	=242	=242
1C	2c\]	0r	0r
.	2B\	.	.
1D	1A	.	.
=243	=243	=243	=243
0E	0G	1r	1r
.	.	1e	1g
=244	=244	=244	=244
0r	0r	1.f	1a
.	.	.	[1cc
.	.	2e\	.
=245	=245	=245	=245
0r	0r	1c	2cc\]
.	.	.	2b\
.	.	1d	1a
=246	=246	=246	=246
1r	1r	0e	0g
1E	1G	.	.
=247	=247	=247	=247
1F	1A	0r	0r
1E	1B	.	.
=248	=248	=248	=248
1AA	1c	1r	1r
1E	2B\	2r	1g
.	[2c\	[2e\	.
=249	=249	=249	=249
2C/	4c\]	2e\]	1a
.	4B\	.	.
2D\	1A	1f	.
1BB	.	.	1b
.	2G#i/	4e\	.
.	.	4d\	.
=250	=250	=250	=250
1AA	1A	2f\	1cc
.	.	2.e\	.
1r	1r	.	2b\
.	.	4d\	.
.	.	2e\	[2cc\
=251	=251	=251	=251
1r	0r	2c\	4cc\]
.	.	.	4b\
.	.	2d\	1a
1E	.	1B	.
.	.	.	2g#i/
=252	=252	=252	=252
1F	1r	0A	0a
1F	1A	.	.
=253	=253	=253	=253
1E	1B	0r	0r
1E	[1c	.	.
=254	=254	=254	=254
1F	2c\]	0r	1r
.	2B\	.	.
1F	1A	.	1a
=255	=255	=255	=255
0E	0G	1r	1b
.	.	1e	[1cc
=256	=256	=256	=256
0r	0r	1c	2cc\]
.	.	.	2b\
.	.	1d	1a
=257	=257	=257	=257
1r	1r	0e	0g
1E	1G	.	.
=258	=258	=258	=258
1C	2A/	0r	0r
.	2E/	.	.
1D	1F	.	.
=259	=259	=259	=259
0E	0E	1r	1r
.	.	1e	1g
=260	=260	=260	=260
0r	0r	1c	2a/
.	.	.	2e/
.	.	1d	1f
=261	=261	=261	=261
0AA	1C	0e	0e
.	[1E	.	.
=262	=262	=262	=262
1AA	1E]	1r	0r
1AA	1F	1A	.
=263	=263	=263	=263
2GG/	0G	2B\	2r
2C/	.	2c\	2e/
2BB/	.	2d\	2d/
[2C/	.	[2G/	[2e/
=264	=264	=264	=264
2C/]	1E	2G/]	4e/]
.	.	.	4d/
2AA/	.	2.A/	4c/
.	.	.	4B/
[1D	[1F	.	2A/
.	.	4G/	.
.	.	4F/	[2f/
.	.	4E/	.
=265	=265	=265	=265
2D\]	2F/]	2D/	4f/]
.	.	.	4e/
2GG/	2G/	2B-\	1d
1AA	1E	1A	.
.	.	.	2c#i/
=266	=266	=266	=266
0r	0D	2r	2d/
.	.	2d\	2a/
.	.	2e\	2g/
.	.	[2f\	[2a/
=267	=267	=267	=267
0r	0r	4f\]	4a/]
.	.	4e\	4g/
.	.	4d\	4f/
.	.	4c\	4e/
.	.	1d	1f
=268	=268	=268	=268
0AA;l	0A;l	0c;l	0e;l
=269	=269	=269	=269
0AA	0r	1r	0r
.	.	1A	.
=270	=270	=270	=270
1C	0r	1G	0r
1D	.	[1F	.
=271	=271	=271	=271
1D	0r	1F]	0r
1C	.	1E	.
=272	=272	=272	=272
0r	0A	0r	1r
.	.	.	1a
=273	=273	=273	=273
0r	1c	0r	1g
.	1d	.	[1f
=274	=274	=274	=274
1r	1d	1r	1f]
1C	1c	2r	1e
.	.	2G/	.
=275	=275	=275	=275
1D	0r	2F/	0r
.	.	2.A/	.
[1F	.	.	.
.	.	4G/	.
.	.	4F/	.
.	.	4E/	.
=276	=276	=276	=276
2F\]	0r	2D/	0r
2E\	.	2G/	.
1D	.	2F/	.
.	.	[2A/	.
=277	=277	=277	=277
0C	1r	2A/]	1r
.	.	4G/	.
.	.	4F/	.
.	1c	1E	2r
.	.	.	2g/
=278	=278	=278	=278
0r	1d	0r	2f/
.	.	.	2.a/
.	[1f	.	.
.	.	.	4g/
.	.	.	4f/
.	.	.	4e/
=279	=279	=279	=279
0r	2f\]	0r	2d/
.	2e\	.	2g/
.	1d	.	2f/
.	.	.	[2a/
=280	=280	=280	=280
1r	0c	2r	2a/]
.	.	2A/	4g/
.	.	.	4f/
1C	.	2G/	1e
.	.	[2A/	.
=281	=281	=281	=281
1D	0r	2A/]	0r
.	.	4G/	.
.	.	4F/	.
1E	.	2G/	.
.	.	2E/	.
=282	=282	=282	=282
1F	1r	1D	2r
.	.	.	2a/
2E\	1c	1r	2g/
[2F\	.	.	[2a/
=283	=283	=283	=283
4F\]	1d	0r	2a/]
4E\	.	.	.
1D	.	.	4g/
.	.	.	4f/
.	1e	.	2e/
2C#i/	.	.	2g/
=284	=284	=284	=284
1D	1f	0r	2f/
.	.	.	2a/
1r	2e\	.	2g/
.	[2f\	.	[2a/
=285	=285	=285	=285
0r	4f\]	0r	2a/]
.	4e\	.	.
.	1d	.	4g/
.	.	.	4f/
.	.	.	1e
.	2c#i\	.	.
=286	=286	=286	=286
1r	0d	2r	0d
.	.	2G/	.
1D	.	2A/	.
.	.	[2B\	.
=287	=287	=287	=287
1E	0r	2B\]	1r
.	.	2c\	.
[1F	.	2A/	1a
.	.	[2d\	.
=288	=288	=288	=288
2F\]	1r	2d\]	2a/
2E\	.	2G/	2g/
1D	1d	2A/	1f
.	.	2B\	.
=289	=289	=289	=289
1C	1e	1c	2e/
.	.	.	2c/
1r	[1f	1r	2d/
.	.	.	[2a/
=290	=290	=290	=290
0r	2f\]	0r	2a/]
.	2e\	.	2g/
.	1d	.	1f
=291	=291	=291	=291
1r	0c	2r	0e
.	.	1c	.
1C	.	.	.
.	.	4B\	.
.	.	4A/	.
=292	=292	=292	=292
2D\	0r	2B\	0r
2AA/	.	1A	.
1BB	.	.	.
.	.	2G#i/	.
=293	=293	=293	=293
0AA	1r	1.A	2r
.	.	.	1cc
.	1c	.	.
.	.	4G/	4b\
.	.	4A/	4a/
=294	=294	=294	=294
1r	2d\	2G/	2b\
.	2A/	2A/	1a
1E	1B	1E	.
.	.	.	2g#i/
=295	=295	=295	=295
2F\	[0A	2r	2a/
2C/	.	2c\	2e/
1D	.	2A/	1f
.	.	2B\	.
=296	=296	=296	=296
[0AA	0A_	[0c	[0e
=297	=297	=297	=297
0AA]	0A]	0c]	0e]
=298	=298	=298	=298
*	*	*M2/1	*M2/1
*	*	*met(O/3)	*met(O/3)
0r	0r	3%2d	3%2d
.	.	3%2d	3%2d
.	.	3%2d	3%2f
=299	=299	=299	=299
0r	0r	3%4f	3%4d
.	.	3%2e	3%2c
=300	=300	=300	=300
0r	0r	3%2.d	3%4f
.	.	3c\	.
.	.	3%2B	3%2g
=301	=301	=301	=301
*M3/1	*M3/1	*	*
*met(O/3)	*met(O/3)	*	*
3%2A	3%2A	3%2A	3%4a
3%2A	3%2A	3%2c	.
3%2A	3%2c	3%2A	3%2e
=302	=302	=302	=302
3%4c	3%4A	[3%4.e	3%4a
3%2B	3%2G	.	3%2b
=303	=303	=303	=303
3%2.A	3%4c	3%2e]	3%4cc
.	.	3%4A	.
3G\	.	.	.
3%2F	3%2d	.	3b\
.	.	.	3a/
=304	=304	=304	=304
3%4.El	3%4.el	3%4.Bl	3%4.gl
!!LO:LB:i:g=z
=305||	=305||	=305||	=305||
!!section: Quinta pars: Qui jacuisti mortuus
!!!OMD: Quinta pars: Qui jacuisti mortuus
*M2/1	*M2/1	*M2/1	*M2/1
*met(C|)	*met(C|)	*met(C|)	*met(C|)
0r	0r	0r	0a
=306	=306	=306	=306
0r	0A	0r	1a
.	.	.	1a
=307	=307	=307	=307
0AA	1A	0r	0cc
.	1A	.	.
=308	=308	=308	=308
1AA	0c	0e	1cc
1AA	.	.	[1cc
=309	=309	=309	=309
0C	1c	0e	1cc]
.	[1c	.	1cc
=310	=310	=310	=310
1C	1c]	1e	0g
[1C	1c	[1g	.
=311	=311	=311	=311
1C]	[0G;l	1g]	0cc
1C	.	1g	.
=312	=312	=312	=312
[0GG;l	0G_	1g	[0b;l
.	.	1g	.
=313	=313	=313	=313
0GG]	0G]	0d;l	0b]
=314	=314	=314	=314
0r	0r	0d	0r
=315	=315	=315	=315
0D	0r	1d	0r
.	.	1d	.
=316	=316	=316	=316
1D	0r	1f	0a
1D	.	1f	.
=317	=317	=317	=317
0F	0A	1f	1a
.	.	1f	1a
=318	=318	=318	=318
1F	1A	0c	0cc
[1F	1A	.	.
=319	=319	=319	=319
1F]	0c	0f	1cc
1F	.	.	[1cc
=320	=320	=320	=320
[0C;l	1c	[0e;l	1cc]
.	[1c	.	1cc
=321	=321	=321	=321
0C_	1c]	0e_	[0g;l
.	1c	.	.
=322	=322	=322	=322
0C]	0G;l	0e]	0g]
=323	=323	=323	=323
0r	0r	0f	0r
=324	=324	=324	=324
0r	0r	1e	0r
.	.	1d	.
=325	=325	=325	=325
0r	0r	1c	0cc
.	.	1c	.
=326	=326	=326	=326
0r	0r	1.d	1b
.	.	.	[1a
.	.	2c\	.
=327	=327	=327	=327
0r	0r	2A/	1a]
.	.	2c\	.
.	.	1B	1g
=328	=328	=328	=328
0F	0r	0A	2a/
.	.	.	2.cc\
.	.	.	4b\
.	.	.	2a/
=329	=329	=329	=329
1E	0r	0r	2g/
.	.	.	2e/
1D	.	.	1f
=330	=330	=330	=330
1C	0c	0r	0e
1C	.	.	.
=331	=331	=331	=331
1.D	1B	1r	0r
.	[1A	1f	.
2C/	.	.	.
=332	=332	=332	=332
2AA/	2A/]	1e	0r
2C/	1.G	.	.
1BB	.	1d	.
=333	=333	=333	=333
0AA	1.A	1.c	0cc
.	2G/	4B\	.
.	.	4A/	.
=334	=334	=334	=334
0r	2E/	1G	1b
.	2G/	.	.
.	1F	2A/	1a
.	.	[2c\	.
=335	=335	=335	=335
0r	0E	2c\]	1g
.	.	4B\	.
.	.	4A/	.
.	.	1B	1g
=336	=336	=336	=336
0A	0r	4A/	1a
.	.	4B\	.
.	.	4c\	.
.	.	4d\	.
.	.	2e\	1cc
.	.	[2f\	.
=337	=337	=337	=337
1G	0r	4f\]	2b\
.	.	4e\	.
.	.	1e	2g/
1F	.	.	1a
.	.	2d\	.
=338	=338	=338	=338
1E	0e	2e\	0g
.	.	2c\	.
1E	.	1B	.
=339	=339	=339	=339
1.F	1d	0A	0r
.	1c	.	.
4E\	.	.	.
4F\	.	.	.
=340	=340	=340	=340
2G\	1B	0r	0r
2E\	.	.	.
1D	1B	.	.
=341	=341	=341	=341
0C	1.c	0r	1g
.	.	.	2g/
.	2B\	.	2g/
=342	=342	=342	=342
0r	2.A/	1c	1a
.	4G/	.	.
.	1A	2c\	1cc
.	.	2c\	.
=343	=343	=343	=343
0r	1G	1d	1b
.	1r	1f	1a
=344	=344	=344	=344
0r	1G	1e	1g
.	2G/	1d	1r
.	2G/	.	.
=345	=345	=345	=345
1C	1A	0c	0r
2C/	1c	.	.
2C/	.	.	.
=346	=346	=346	=346
1D	1B	0r	0r
1F	1A	.	.
=347	=347	=347	=347
1E	2G/	0r	0r
.	1c	.	.
1D	.	.	.
.	2B\	.	.
=348	=348	=348	=348
0C	0c	1e	1g
.	.	2e\	2g/
.	.	2e\	2g/
=349	=349	=349	=349
0r	0r	1f	1a
.	.	2d\	2f/
.	.	[2e\	[2g/
=350	=350	=350	=350
0r	1r	4e\]	4g/]
.	.	4d\	4f/
.	.	1d	4e/
.	.	.	4d/
.	1A	.	1e
.	.	2c#i\	.
=351	=351	=351	=351
1G	1B	1.d	1d
2G\	1B	.	1r
2G\	.	[2e\	.
=352	=352	=352	=352
1A	1c	2e\]	0r
.	.	2f\	.
2F\	2A/	2d\	.
[2G\	[2B\	[2e\	.
=353	=353	=353	=353
4G\]	4B\]	2e\]	0r
4F\	4A/	.	.
4E\	1A	1d	.
4D\	.	.	.
1E	.	.	.
.	2G/	2c#i\	.
=354	=354	=354	=354
0D	0A	0d	1r
.	.	.	1f
=355	=355	=355	=355
0r	2r	0r	1e
.	1c	.	.
.	.	.	1g
.	[2B\	.	.
=356	=356	=356	=356
0r	2B\]	0r	1d
.	1d	.	.
.	.	.	1f
.	[2A/	.	.
=357	=357	=357	=357
0r	2A/]	0r	1e
.	2c\	.	.
.	2B\	.	2d/
.	[2c\	.	[2e/
=358	=358	=358	=358
0r	4c\]	0r	2e/]
.	4B\	.	.
.	1A	.	2c/
.	.	.	1B
.	2G#i/	.	.
=359	=359	=359	=359
1r	0A	1r	0A
1F	.	2r	.
.	.	[2c\	.
=360	=360	=360	=360
1E	0r	2c\]	0r
.	.	1B	.
1G	.	.	.
.	.	[2d\	.
=361	=361	=361	=361
1D	0r	2d\]	0r
.	.	1A	.
1F	.	.	.
.	.	[2c\	.
=362	=362	=362	=362
1E	0r	2c\]	0r
.	.	2.B\	.
2D\	.	.	.
.	.	4A/	.
[2E\	.	[2c\	.
=363	=363	=363	=363
2E\]	0r	4c\]	0r
.	.	4B\	.
2C/	.	1A	.
1BB	.	.	.
.	.	2G#i/	.
=364	=364	=364	=364
0AA	0r	0A	1r
.	.	.	1a
=365	=365	=365	=365
0r	1r	0r	1.cc
.	1A	.	.
.	.	.	2b\
=366	=366	=366	=366
0r	1.c	0r	1a
.	.	.	1g
.	2B\	.	.
=367	=367	=367	=367
0r	1A	0r	2.a/
.	.	.	8g/L
.	.	.	8f/J
.	2G/	.	4e/
.	.	.	4d/
.	[2A/	.	[2f/
=368	=368	=368	=368
0r	4A/]	1r	4f/]
.	4E/	.	4e/
.	2G/	.	1e
.	1F	1A	.
.	.	.	2d/
=369	=369	=369	=369
1r	[0El	1.c	[0el
1AA	.	.	.
.	.	2B\	.
=370	=370	=370	=370
1.C	0E_	1A	0e_
.	.	1G	.
2BB/	.	.	.
=371	=371	=371	=371
1AA	0E_	1A	0e_
2GG/	.	2B\	.
[2AA/	.	[2c\	.
=372	=372	=372	=372
2AA/]	0E_	2c\]	0e_
2GG/	.	4B\	.
.	.	4A/	.
1AA	.	1c	.
=373	=373	=373	=373
0EEl	0E]	0Bl	0e]
!!LO:LB:i:g=z
=374||	=374||	=374||	=374||
!!section: Sexta pars: Christum ducem, qui per crucem
!!!OMD: Sexta pars: Christum ducem, qui per crucem
*M2/1	*M2/1	*M2/1	*M2/1
*met(C|)	*met(C|)	*met(C|)	*met(C|)
0r	0r	1d	1d
.	.	[1d	[1f
=375	=375	=375	=375
0r	0r	1d]	1f]
.	.	1e	1g
=376	=376	=376	=376
0r	0r	1c	1e
.	.	1d	1d
=377	=377	=377	=377
1D	1D	0r	0r
[1D	[1F	.	.
=378	=378	=378	=378
1D]	1F]	0r	0r
1E	1G	.	.
=379	=379	=379	=379
1C	1E	0r	0r
1D	1D	.	.
=380	=380	=380	=380
0r	0r	1d	1d
.	.	[1d	[1f
=381	=381	=381	=381
0r	0r	1d]	1f]
.	.	1e	1g
=382	=382	=382	=382
0r	0r	1c	0a
.	.	1A	.
=383	=383	=383	=383
1D	1D	0r	0r
[1D	[1F	.	.
=384	=384	=384	=384
1D]	1F]	0r	0r
1E	1G	.	.
=385	=385	=385	=385
1C	0A	0r	0r
1AA	.	.	.
=386	=386	=386	=386
0r	0r	1d	1a
.	.	1d	1b
=387	=387	=387	=387
0r	0r	1c	1a
.	.	1B	1g#i
=388	=388	=388	=388
0r	0r	0A	0a
=389	=389	=389	=389
1D	1A	0r	0r
1D	1B	.	.
=390	=390	=390	=390
1C	1A	0r	0r
1BB	1G#i	.	.
=391	=391	=391	=391
0AA	0A	0r	0r
=392	=392	=392	=392
0r	0r	1d	1d
.	.	[1d	[1f
=393	=393	=393	=393
0r	0r	1d]	1f]
.	.	1e	1g
=394	=394	=394	=394
0r	0r	1c	1e
.	.	1d	1d
=395	=395	=395	=395
1D	1D	0r	0r
[1D	[1F	.	.
=396	=396	=396	=396
1D]	1F]	0r	0r
1E	1G	.	.
=397	=397	=397	=397
1C	1E	0r	0r
1D	1D	.	.
=398	=398	=398	=398
1r	1r	1r	1r
1D	1A	1d	1f
=399	=399	=399	=399
1C	1.c	1e	2e/
.	.	.	2f/
1C	.	1e	1g
.	2B\	.	.
=400	=400	=400	=400
[0D	2A/	[0d	1f
.	2G/	.	.
.	1A	.	[1f
=401	=401	=401	=401
1D]	1r	1d]	2f/]
.	.	.	2e/
1D	[1A	1f	1d
=402	=402	=402	=402
1AA	1A]	1e	1c
1BB	1D	1d	1d
=403	=403	=403	=403
[0AA;	1A	[0c;	1e
.	1A	.	1e
=404	=404	=404	=404
0AA]	0A;	0c]	0e;
=405	=405	=405	=405
1D	0r	0r	0r
1D	.	.	.
=406	=406	=406	=406
1C	1A	1r	0r
1D	1A	1d	.
=407	=407	=407	=407
1BB	1G	1d	0r
1AA	1A	[1c	.
=408	=408	=408	=408
0r	1F	2c\]	1a
.	.	1.d	.
.	1D	.	1a
=409	=409	=409	=409
1r	1E	1B	1g
[1D	[1F	[1A	1a
=410	=410	=410	=410
1D]	1F]	2A/]	1f
.	.	1d	.
1GG	1G	.	1d
.	.	4c\	.
.	.	4B\	.
=411	=411	=411	=411
2r	1E	1c	1e
2C/	.	.	.
2D\	1D	1F	[1f
[2F\	.	.	.
=412	=412	=412	=412
2F\]	1r	1r	1f]
4E\	.	.	.
4D\	.	.	.
1E	1C	2r	1g
.	.	[2c\	.
=413	=413	=413	=413
1C	1.G	2c\]	1e
.	.	4B\	.
.	.	4A/	.
[1G	.	2B\	1d
.	2A/	2c\	.
=414	=414	=414	=414
1G]	1B	2d\	1r
.	.	2B\	.
1A	[1c	[1e	1c
=415	=415	=415	=415
0E	1c]	1e]	0g
.	1B	1e	.
=416	=416	=416	=416
0r	1A	1c	1a
.	1G	[1d	[1b
=417	=417	=417	=417
0r	1.d	2d\]	1b]
.	.	1f	.
.	.	.	1a
.	2c\	2e\	.
=418	=418	=418	=418
0r	2A/	2c\	2cc\
.	2G/	2d\	2b\
.	2c\	2e\	1a
.	2d\	2f\	.
=419	=419	=419	=419
1E	1B	1e	1g
1F	[1A	1c	[1a
=420	=420	=420	=420
2D\	1A]	2.d\	1a]
1F	.	.	.
.	.	4c\	.
.	1r	2A/	1r
2E\	.	2c\	.
=421	=421	=421	=421
2D\	1d	4B\	0r
.	.	4A/	.
2C/	.	1A	.
1BB	1d	.	.
.	.	2G#i/	.
=422	=422	=422	=422
1AA	1c	1A	1a
1r	1d	1D	1a
=423	=423	=423	=423
0r	1B	1E	1g
.	[1A	1F	1a
=424	=424	=424	=424
0r	1A]	0D	1f
.	1B	.	1d
=425	=425	=425	=425
0r	1c	0r	0e
.	[1A	.	.
=426	=426	=426	=426
0r	1A]	0r	1f
.	1G	.	1g
=427	=427	=427	=427
0r	2A/	0r	2f/
.	2c\	.	2e/
.	1B	.	1d
=428	=428	=428	=428
0r	1A	0r	1c
.	1r	.	1r
=429	=429	=429	=429
0D	0F	0A	0f
=430	=430	=430	=430
1.C	[0G	0c	1.e
2D\	.	.	2f/
=431	=431	=431	=431
1E	1G]	1B	1g
[1F	1F	2A/	[1a
.	.	[2c\	.
=432	=432	=432	=432
1F]	0c	2c\]	1a]
.	.	2d\	.
1E	.	1e	1g
=433	=433	=433	=433
1D	0d	0f	1f
1BB	.	.	1d
=434	=434	=434	=434
1D	1A	1d	1f
[1C	[1c	[1e	2.e/
.	.	.	4f/
=435	=435	=435	=435
1C]	2c\]	1e]	2g/
.	2B\	.	2e/
1D	2.A/	1d	1f
.	4G/	.	.
=436	=436	=436	=436
0AA;	0A;	0c;	0e;
=437	=437	=437	=437
0r	0r	1d	1a
.	.	[1f	[1a
=438	=438	=438	=438
0r	0r	1f]	1a]
.	.	1g	1b-i
=439	=439	=439	=439
0r	0r	1e	1g
.	.	1f	1f
=440	=440	=440	=440
1D	1A	0r	0r
[1F	[1A	.	.
=441	=441	=441	=441
1F]	1A]	0r	0r
1G	1B-i	.	.
=442	=442	=442	=442
1E	1G	0r	0r
1F	1F	.	.
=443	=443	=443	=443
0r	0r	1r	1d
.	.	1d	[1f
=444	=444	=444	=444
0r	0r	0f	1f]
.	.	.	1d
=445	=445	=445	=445
0r	0r	1d	1.f
.	.	[1f	.
.	.	.	2g/
=446	=446	=446	=446
0r	0r	2f\]	2.a/
.	.	2e\	.
.	.	.	4b\
.	.	2c\	2cc\
.	.	[2d\	[2b\
=447	=447	=447	=447
0r	0r	4d\]	4b\]
.	.	4c\	4a/
.	.	2A/	1a
.	.	1B	.
.	.	.	2g#i/
=448	=448	=448	=448
1r	1D	0A	0a
1D	[1F	.	.
=449	=449	=449	=449
0F	1F]	0r	0r
.	1D	.	.
=450	=450	=450	=450
1D	1.F	0r	0r
[1F	.	.	.
.	2G/	.	.
=451	=451	=451	=451
2F\]	2.A/	0r	0r
2E\	.	.	.
.	4B\	.	.
2C/	2c\	.	.
[2D\	[2B\	.	.
=452	=452	=452	=452
4D\]	4B\]	0r	0r
4C/	4A/	.	.
2AA/	1A	.	.
1BB	.	.	.
.	2G#i/	.	.
=453	=453	=453	=453
0AA	0A	0r	0r
=454	=454	=454	=454
0r	0r	1d	1a
.	.	[1f	[1a
=455	=455	=455	=455
0r	0r	1f]	1a]
.	.	1g	1b-i
=456	=456	=456	=456
0r	0r	1e	1g
.	.	1f	1f
=457	=457	=457	=457
1D	1A	0r	0r
[1F	[1A	.	.
=458	=458	=458	=458
1F]	1A]	0r	0r
1G	1B-i	.	.
=459	=459	=459	=459
1E	1G	0r	0r
1F	1F	.	.
=460	=460	=460	=460
1r	1r	1r	1r
1D	1A	1d	1f
=461	=461	=461	=461
1C	1.c	1e	2.e/
.	.	.	4f/
1C	.	1e	1g
.	2B\	.	.
=462	=462	=462	=462
[0D	2A/	[0d	1f
.	2G/	.	.
.	1A	.	[1f
=463	=463	=463	=463
1D]	1r	1d]	2f/]
.	.	.	2e/
1D	[1A	1f	1d
=464	=464	=464	=464
1AA	1A]	1e	1c
1BB	1D	1d	1d
=465	=465	=465	=465
[0AA;	1A	[0c;	1e
.	1A	.	1e
=466	=466	=466	=466
0AA]	0A;	0c]	0e;
=467	=467	=467	=467
*M3/1	*M3/1	*M3/1	*M3/1
*met(O/3)	*met(O/3)	*met(O/3)	*met(O/3)
0.r	0.r	1f	1a
.	.	1f	1a
.	.	1f	1a
=468	=468	=468	=468
0.r	0.r	0e	0g
.	.	1e	1g
=469	=469	=469	=469
0.r	0.r	1f	1a
.	.	1e	1g
.	.	1d	1f
=470	=470	=470	=470
1r	1r	1e	1e
1r	1r	1c	1r
1AA	1A	1r	1e
=471	=471	=471	=471
0D	0A	1d	1f
.	.	1f	1d
1C	1c	1e	1e
=472	=472	=472	=472
0D	0A	1d	1f
.	.	1f	1d
1C	1c	1e	1e
=473	=473	=473	=473
1D	1B	0d	0f
1F	1A	.	.
1E	1G#i	1B	1g
=474	=474	=474	=474
0AA	0A	1c	1e
.	.	1r	1r
1r	1r	1c	1e
=475	=475	=475	=475
0.r	0.r	1d	1f
.	.	1B	1d
.	.	1c	1e
=476	=476	=476	=476
0.r	0.r	0d	1f
.	.	.	1d
.	.	1f	1a
=477	=477	=477	=477
0.r	0.r	1f	1a
.	.	1e	1g
.	.	1d	1f
=478	=478	=478	=478
0.r	0.r	1e	0e
.	.	1c	.
.	.	1r	1r
=479	=479	=479	=479
0C	1.E	1.G	0e
.	2F/	2A/	.
1BB	1G	1B	1d
=480	=480	=480	=480
0AA	0A	1c	0c
.	.	1A	.
1AA	1A	1c	1e
=481	=481	=481	=481
0E	0G	0B	0g
1E	1G	1c	1g
=482	=482	=482	=482
0F	0c	1A	0a
.	.	1c	.
1F	1A	1d	1a
=483	=483	=483	=483
0.E;	0.B;	0.e;	0.g;
=484	=484	=484	=484
1D	1d	1f	1a
1D	1d	1f	1a
1D	1d	1f	1b
=485	=485	=485	=485
0A	1c	0e	0cc
.	1A	.	.
1G	1B	1e	1b
=486	=486	=486	=486
1F	1.c	1f	1a
1C	.	1e	1g
.	2B\	.	.
1D	2.A/	1d	1f
.	4G/	.	.
=487	=487	=487	=487
0AA	0A	0c	0e
1r	1r	1r	1r
=488	=488	=488	=488
0.r	0.r	1c	1e
.	.	1d	1f
.	.	1e	1g
=489	=489	=489	=489
0.r	0.r	0f	0a
.	.	1e	1g
=490	=490	=490	=490
0.r	0.r	1d	1f
.	.	1B	1g
.	.	1c#i	1e
=491	=491	=491	=491
0.r	0.r	0d	0d
.	.	1r	1r
=492	=492	=492	=492
1D	1d	1f	1a
1D	1d	1f	1a
1D	1d	1f	1b
=493	=493	=493	=493
0A	1c	0e	0cc
.	1A	.	.
1G	1B	1e	1b
=494	=494	=494	=494
1F	1.c	1f	1a
1C	.	1e	1g
.	2B\	.	.
1D	2.A/	1d	1f
.	4G/	.	.
=495	=495	=495	=495
0AA	0A	0c	0e
1r	1r	1r	1r
=496	=496	=496	=496
0.r	0.r	1d	1d
.	.	1d	1d
.	.	1d	1f
=497	=497	=497	=497
0.r	0.r	0f	0d
.	.	1e	1c
=498	=498	=498	=498
0.r	0.r	1.d	0f
.	.	2c\	.
.	.	1B	1g
=499	=499	=499	=499
1A	1A	1A	0a
1A	1A	1c	.
1A	1c	1A	1e
=500	=500	=500	=500
0c	0A	1e	0a
.	.	1c	.
1B	1G	1d	1b
=501	=501	=501	=501
1.A	0c	1e	0cc
.	.	0A	.
2G\	.	.	.
1F	1d	.	2b\
.	.	.	2a/
=502	=502	=502	=502
0.El	0.el	0.Bl	0.gl
==	==	==	==
*-	*-	*-	*-
!!!RDF**kern: l=long note in original notation
!!!RDF**kern: i=editorial accidental
!!!ENC:	Jesse Rodin; Victoria Chang 2011/05/27
!!!END:	2011/05/27/
!!!EED:	Jesse Rodin
!!!EEV:	2011/08/24/
!!attribution-level@Jos: 2 (slightly less secure)
!!!ONB:	Translated from MusicXML and edited on 2011/08/17/ by Craig Sapp
!!muse2ps: C^@{COA}?\n@{SCT}^i2I150v90,90,90,150c76Q16
